public/svg/arrow3.svg

<svg width="109" height="130" viewBox="0 0 109 130" fill="none" xmlns="http://www.w3.org/2000/svg">
<path d="M46.0858 114.7L47.3883 113.955C48.2756 113.452 49.4989 112.755 51.0394 111.806L53.4427 110.12C54.4177 109.469 55.3509 108.757 56.2367 107.99L59.2728 105.411L62.3995 102.276C64.6672 99.8743 66.7668 97.3189 68.6833 94.6283C70.8279 91.6231 72.7104 88.4393 74.3101 85.112L74.9473 83.8494L75.5533 82.4919L76.6703 79.7766C77.0785 78.8737 77.3414 77.9133 77.6548 76.9785L78.5826 74.1359C79.0801 72.193 79.5618 70.2342 79.9867 68.2625L80.4755 65.2696C80.6402 64.2587 80.7475 63.2392 80.7969 62.2161C80.9436 60.1991 81.2231 58.2015 81.1611 56.1901L81.2262 53.1893C81.2046 52.1963 81.1103 51.2061 81.0508 50.2256C80.9912 49.245 80.9538 48.2677 80.8341 47.2965L80.3831 44.455L80.1893 43.0344L80.1463 42.6801L80.09 42.5091C80.1338 42.6421 80.09 42.5091 80.09 42.5091L80.0463 42.3761L79.9004 41.6451C79.6922 40.6608 79.5126 39.6672 79.269 38.8314C78.4226 35.399 77.2514 32.0549 75.7712 28.8443C74.479 25.9676 72.9125 23.222 71.0935 20.6458C69.5867 18.4698 67.8642 16.4514 65.9521 14.6213L65.3378 14.0023L64.7043 13.4528L63.4875 12.411L61.3024 10.7299C60.5767 10.2845 59.9648 9.86474 59.3527 9.50826C58.7406 9.15178 58.2575 8.93176 57.8505 8.68673L56.5693 7.99251L56.4399 7.91929C56.1643 7.75957 55.9541 7.50757 55.8464 7.20782C55.7387 6.90808 55.7404 6.57991 55.8513 6.28133C55.9622 5.98276 56.1751 5.733 56.4523 5.57621C56.7296 5.41942 57.0533 5.36572 57.3663 5.42457L58.9178 5.75613C60.3912 6.09124 61.8327 6.55376 63.226 7.13848C64.094 7.56866 65.1075 7.99307 66.133 8.58195L67.7073 9.55871L68.5338 10.0868L69.3411 10.6843C71.8024 12.5135 74.015 14.6554 75.9232 17.0559C78.181 19.8445 80.0827 22.9036 81.5842 26.1625C83.2355 29.8181 84.4932 33.6391 85.336 37.5609C85.5913 38.6244 85.7143 39.5419 85.894 40.5356L86.0208 41.2729L86.1021 41.5198L86.1615 41.7003L86.141 42.1176L86.2995 43.6867L86.6418 46.8377C86.7075 47.8688 86.6687 48.9344 86.6962 50.0413C86.7236 51.1482 86.7513 52.1919 86.703 53.2605L86.4536 56.501C86.2777 58.6555 85.9889 60.7993 85.5883 62.9235C85.416 64.0043 85.185 65.0749 84.8963 66.1306L84.1382 69.2648C83.5296 71.318 82.8705 73.3457 82.1894 75.3385L81.0463 78.2625C80.6474 79.2255 80.3085 80.2109 79.8307 81.1261L78.4889 83.8944L77.883 85.2519L77.1413 86.5488C76.1323 88.2811 75.2466 90.036 74.1307 91.6035C73.0148 93.171 72.1042 94.8182 70.9383 96.2337C68.8944 98.9912 66.6625 101.604 64.2585 104.054L60.9894 107.236L57.8328 109.896C56.906 110.687 55.9373 111.428 54.931 112.115L52.394 114.002C50.8502 115.005 49.6079 115.709 48.7837 116.243L47.5095 117.042C47.2009 117.237 46.8275 117.302 46.4714 117.221C46.1153 117.141 45.8056 116.923 45.6105 116.614C45.4154 116.306 45.3509 115.932 45.4311 115.576C45.5113 115.22 45.7297 114.91 46.0383 114.715L46.0858 114.7Z" fill="#C1CEBE"/>
<path d="M51.511 124.021C51.186 123.833 50.8641 123.655 50.5327 123.479L49.6016 123.017C48.9476 122.768 48.2801 122.555 47.6022 122.381C46.9214 122.202 46.2316 122.06 45.5357 121.955C44.8403 121.858 44.129 121.808 43.4334 121.774C42.738 121.756 42.0422 121.778 41.3492 121.838C40.6504 121.926 39.9565 122.049 39.2702 122.207C38.5981 122.367 37.9345 122.56 37.2821 122.788C36.6362 123 36.009 123.27 35.423 123.536C34.9801 123.725 34.49 123.774 34.0185 123.677C33.547 123.579 33.1166 123.34 32.785 122.991C32.4535 122.641 32.2368 122.199 32.1639 121.723C32.0909 121.247 32.1654 120.76 32.3772 120.328L32.7371 119.63L34.5496 116.149C35.1611 115 35.7757 113.861 36.4187 112.744C37.05 111.605 37.7688 110.516 38.5687 109.489C38.9902 108.969 39.4375 108.47 39.9088 107.995C40.1659 107.752 40.3977 107.497 40.7148 107.245C40.7813 107.223 40.88 107.043 40.8478 107.201C40.8497 107.449 40.8882 107.696 40.9621 107.932C41.0686 108.219 41.2637 108.465 41.5192 108.633L41.7084 108.761L41.7277 108.691C41.9675 108.798 42.2317 108.838 42.4925 108.808C42.7766 108.775 43.0423 108.65 43.2496 108.453C43.4551 108.257 43.5849 107.994 43.6161 107.711C43.6469 107.519 43.6355 107.321 43.5827 107.133C43.5299 106.945 43.437 106.771 43.3103 106.623C43.1932 106.479 43.0471 106.362 42.8815 106.279C42.7564 106.217 42.6219 106.176 42.4835 106.158C42.3923 106.145 42.2999 106.144 42.2084 106.153L42.0184 106.216C42.1959 106.166 42.3818 106.152 42.5647 106.176C42.7476 106.2 42.9236 106.262 43.0818 106.356C43.24 106.451 43.3772 106.578 43.4847 106.727C43.5923 106.877 43.668 107.048 43.7071 107.228C43.7463 107.408 43.7481 107.595 43.7124 107.776C43.6767 107.957 43.6043 108.128 43.4997 108.28C43.395 108.432 43.2603 108.561 43.1039 108.659C42.9476 108.757 42.7728 108.822 42.5904 108.849L42.3624 108.924C42.2604 108.937 42.1573 108.935 42.0557 108.92C41.9085 108.897 41.7657 108.852 41.6324 108.786C41.4569 108.696 41.3014 108.572 41.1753 108.42C41.0367 108.254 40.936 108.06 40.8799 107.851C40.8239 107.642 40.814 107.424 40.851 107.211C40.9004 106.843 41.0747 106.503 41.3447 106.248C41.595 106.011 41.9172 105.865 42.2602 105.831C42.5436 105.798 42.8306 105.842 43.0914 105.958L43.1798 106.002L43.3786 106.126C43.6635 106.339 43.88 106.63 44.0015 106.963C44.13 107.36 44.1567 107.782 44.0791 108.191C44.0347 108.333 44.0159 108.482 44.0237 108.63C44.0223 109.01 43.9861 109.379 43.9469 109.708C43.8655 110.43 43.7275 111.144 43.5341 111.844C43.1575 113.22 42.6052 114.541 41.8907 115.775C41.2022 117.032 40.4241 118.239 39.5623 119.384C38.6867 120.503 37.7483 121.571 36.7516 122.583L34.0595 118.658C34.8853 118.544 35.7046 118.475 36.5237 118.437L37.7476 118.413L38.9587 118.446L40.1601 118.514L41.355 118.626L42.5372 118.763L43.7098 118.935C44.4872 119.058 45.2582 119.225 46.0197 119.396C46.7811 119.566 47.5393 119.79 48.3196 119.986C49.1 120.182 49.8136 120.463 50.5051 120.741L51.6261 121.172C51.9702 121.322 52.3176 121.45 52.6681 121.587C53.0031 121.714 53.2739 121.969 53.4209 122.296C53.5679 122.622 53.5791 122.994 53.4521 123.329C53.325 123.664 53.0701 123.935 52.7433 124.082C52.4166 124.229 52.0448 124.24 51.7099 124.113L51.511 124.021Z" fill="#C1CEBE"/>
</svg>

<svg xmlns="http://www.w3.org/2000/svg" width="109" height="130" fill="#c1cebe" xmlns:v="https://vecta.io/nano"><path d="M46.086 114.7l1.303-.745 3.65-2.15 2.403-1.686c.975-.65 1.908-1.363 2.794-2.13l3.036-2.58 3.127-3.135a71.9 71.9 0 0 0 6.284-7.648 64.48 64.48 0 0 0 5.627-9.516l.637-1.263.606-1.358 1.117-2.715c.408-.903.67-1.863.984-2.798l.928-2.843a157.26 157.26 0 0 0 1.404-5.873l.5-2.993c.165-1 .272-2.03.32-3.053l.364-6.026.065-3-.175-2.964-.217-2.93-.45-2.842-.194-1.42-.043-.354-.056-.17c.044.133 0 0 0 0l-.044-.133-.146-.73-.63-2.814a55.71 55.71 0 0 0-3.498-9.987c-1.292-2.877-2.86-5.622-4.678-8.198a39.34 39.34 0 0 0-5.141-6.025L65.34 14l-.633-.55-1.217-1.042-2.185-1.68-1.95-1.222-1.502-.822-1.28-.694-.13-.073a1.35 1.35 0 0 1 .926-2.495l1.55.332a26.08 26.08 0 0 1 4.308 1.382l2.907 1.443 1.574.977.826.528.807.598a35.33 35.33 0 0 1 6.582 6.372 43.2 43.2 0 0 1 5.661 9.107 56.55 56.55 0 0 1 3.752 11.398l.558 2.975.127.737.14.427-.02.417.158 1.57.342 3.15.054 3.204.007 3.22-.25 3.24a61.94 61.94 0 0 1-.865 6.422c-.172 1.08-.403 2.15-.692 3.207l-.758 3.134-1.95 6.074-1.143 2.924-1.216 2.864-1.342 2.768-.606 1.358-.742 1.297-3 5.055-3.192 4.63a74.55 74.55 0 0 1-6.68 7.82l-3.27 3.182-3.157 2.66c-.927.8-1.895 1.532-2.902 2.22l-2.537 1.887-3.6 2.24-1.274.8a1.38 1.38 0 0 1-1.038.18 1.37 1.37 0 0 1-.86-.607c-.194-.31-.26-.682-.18-1.038s.3-.666.607-.86l.047-.015zm5.424 9.32l-.978-.542-.93-.462c-.654-.25-1.322-.462-2-.636l-2.067-.426a23.65 23.65 0 0 0-2.102-.181c-.695-.018-1.4.004-2.084.064l-2.08.37-1.988.58c-.646.212-1.273.482-1.86.748a2.35 2.35 0 0 1-1.404.14 2.37 2.37 0 0 1-1.234-.686 2.35 2.35 0 0 1-.62-1.268 2.36 2.36 0 0 1 .213-1.395l.36-.698 1.813-3.48 1.87-3.405a25.1 25.1 0 0 1 2.15-3.255l1.34-1.494.806-.75c.067-.022.165-.202.133-.044a2.5 2.5 0 0 0 .114.73c.107.287.302.533.557.7l.2.128.02-.07c.24.107.504.147.765.117a1.32 1.32 0 0 0 .757-.355 1.21 1.21 0 0 0 .367-.742 1.35 1.35 0 0 0-.033-.578 1.34 1.34 0 0 0-.272-.51 1.31 1.31 0 0 0-.43-.344 1.24 1.24 0 0 0-.398-.12 1.15 1.15 0 0 0-.275-.005l-.2.063a1.36 1.36 0 0 1 1.063.14c.158.095.295.222.403.37s.183.32.222.5a1.35 1.35 0 0 1-.207 1.052 1.39 1.39 0 0 1-.396.38c-.156.1-.33.163-.514.2l-.228.075a1.17 1.17 0 0 1-.307-.004 1.37 1.37 0 0 1-.423-.134c-.175-.1-.33-.214-.457-.366a1.49 1.49 0 0 1-.295-.569c-.056-.2-.066-.427-.03-.64a1.62 1.62 0 0 1 .494-.963 1.55 1.55 0 0 1 .915-.417 1.59 1.59 0 0 1 .831.127l.088.044.2.124a1.83 1.83 0 0 1 .623.837c.13.397.155.82.078 1.228a1.25 1.25 0 0 0-.055.439c-.001.38-.038.75-.077 1.078-.08.722-.22 1.436-.413 2.136a16.58 16.58 0 0 1-1.643 3.931 29.84 29.84 0 0 1-2.328 3.609 37.63 37.63 0 0 1-2.81 3.2l-2.692-3.925 2.464-.22 1.224-.024 1.2.033 1.2.068 1.195.112 1.182.137 1.173.172 2.3.46 2.3.6c.78.196 1.494.477 2.185.755l1.12.43 1.042.415a1.35 1.35 0 0 1-.958 2.526l-.2-.092z"/></svg>
